components/ui-node-icon/src/nest/nest.medium.svg

<svg width="24" height="24" viewBox="0 0 24 24" fill="none" xmlns="http://www.w3.org/2000/svg">
  <path d="M5.5 5H6.5H18.5C19.6046 5 20.5 5.89543 20.5 7V10.6605C20.5 10.9369 20.6144 11.201 20.8161 11.3901L22 12.5L20.8161 13.6099C20.6144 13.799 20.5 14.0631 20.5 14.3395V18C20.5 19.1046 19.6046 20 18.5 20H6.5H5.5C4.39543 20 3.5 19.1046 3.5 18V14.3395C3.5 14.0631 3.38559 13.799 3.18394 13.6099L2 12.5L3.18394 11.3901C3.38559 11.201 3.5 10.9369 3.5 10.6605V7C3.5 5.89543 4.39543 5 5.5 5Z" fill="var(--tbl--colors--icons--clean--secondary)"/>
  <path fill-rule="evenodd" clip-rule="evenodd" d="M6.49997 4C7.05226 4 7.49997 4.44772 7.49997 5C7.49997 5.55228 7.05226 6 6.49997 6H5.49997C4.94769 6 4.49997 6.44772 4.49997 7V10.5858C4.49997 11.1162 4.28926 11.6249 3.91418 12L3.41418 12.5L3.91418 13C4.28926 13.3751 4.49997 13.8838 4.49997 14.4142V18C4.49997 18.5523 4.94769 19 5.49997 19H6.49997C7.05226 19 7.49997 19.4477 7.49997 20C7.49997 20.5523 7.05226 21 6.49997 21H5.49997C3.84312 21 2.49997 19.6569 2.49997 18V14.4142L1.99997 13.9142C1.21892 13.1332 1.21892 11.8668 1.99997 11.0858L2.49997 10.5858V7C2.49997 5.34315 3.84312 4 5.49997 4H6.49997ZM18 4C17.4477 4 17 4.44772 17 5C17 5.55228 17.4477 6 18 6H19C19.5523 6 20 6.44772 20 7V10.5858C20 11.1162 20.2107 11.6249 20.5858 12L21.0858 12.5L20.5858 13C20.2107 13.3751 20 13.8838 20 14.4142V18C20 18.5523 19.5523 19 19 19H18C17.4477 19 17 19.4477 17 20C17 20.5523 17.4477 21 18 21H19C20.6569 21 22 19.6569 22 18V14.4142L22.5 13.9142C23.281 13.1332 23.281 11.8668 22.5 11.0858L22 10.5858V7C22 5.34315 20.6569 4 19 4H18Z" fill="var(--tbl--colors--icons--clean--primary)"/>
</svg>

<svg xmlns="http://www.w3.org/2000/svg" width="24" height="24" fill="none" viewBox="0 0 24 24">
  <path fill="var(--tbl--colors--icons--clean--secondary)" d="M5.5 5h13a2 2 0 0 1 2 2v3.66a1 1 0 0 0 .316.73L22 12.5l-1.184 1.11a1 1 0 0 0-.316.73V18a2 2 0 0 1-2 2h-13a2 2 0 0 1-2-2v-3.66a1 1 0 0 0-.316-.73L2 12.5l1.184-1.11a1 1 0 0 0 .316-.73V7a2 2 0 0 1 2-2Z"/>
  <path fill="var(--tbl--colors--icons--clean--primary)" fill-rule="evenodd" d="M6.5 4a1 1 0 1 1 0 2h-1a1 1 0 0 0-1 1v3.586A2 2 0 0 1 3.914 12l-.5.5.5.5a2 2 0 0 1 .586 1.414V18a1 1 0 0 0 1 1h1a1 1 0 1 1 0 2h-1a3 3 0 0 1-3-3v-3.586l-.5-.5a2 2 0 0 1 0-2.828l.5-.5V7a3 3 0 0 1 3-3h1ZM18 4a1 1 0 1 0 0 2h1a1 1 0 0 1 1 1v3.586A2 2 0 0 0 20.586 12l.5.5-.5.5A2 2 0 0 0 20 14.414V18a1 1 0 0 1-1 1h-1a1 1 0 1 0 0 2h1a3 3 0 0 0 3-3v-3.586l.5-.5a2 2 0 0 0 0-2.828l-.5-.5V7a3 3 0 0 0-3-3h-1Z" clip-rule="evenodd"/>
</svg>
